!!!COM: Bach, Johann Sebastian
!!!CDT: 1685/3//-1750/7/28/
!!!OTL@@DE: Herr Christ, der ein'ge Gott's Sohn
!!!AGN: 4-Part Chorale
!!!SCT: Erk 303
!!!SCT: BWV 96
!!!YEC: Copyright 1994, David Huron
!!!YEC: Changes/Additions 2001 by Craig Stuart Sapp
!!!YEN: United States of America
!!!SMA: 371 Bach Chorales, edited by Ludwig Erk, C.F. Peters
!!!PDT: 1850, 1865
!!!ONB: Harmony and Root analysis done manually
**kern	**kern	**kern	**kern	**root	**harm	**kern
!bass	!tenor	!alto	!soprno	!	!	!
*Iorgan	*Iorgan	*Iorgan	*Iorgan	*Iorgan	*	*Iorgan
*M4/4	*M4/4	*M4/4	*M4/4	*M4/4	*M4/4	*M4/4
*met(C)	*met(C)	*met(C)	*met(C)	*met(C)	*met(C)	*met(C)
*MM60	*MM60	*MM60	*MM60	*MM60	*MM60	*MM60
*k[b-]	*k[b-]	*k[b-]	*k[b-]	*k[b-]	*k[b-]	*k[b-]
*F:	*F:	*F:	*F:	*F:	*F:	*F:
*>[A,A,B]	*>[A,A,B]	*>[A,A,B]	*>[A,A,B]	*>[A,A,B]	*>[A,A,B]	*>[A,A,B]
*>A	*>A	*>A	*>A	*>A	*>A	*>A
4F	4A	4c	4f	4FF	I	4F 4a 4cc
=1	=1	=1	=1	=1	=1	=1
4BB-	4B-	8d	8f	4BB-	IV	4B- 4dd 4ff
.	.	8e	8g	.	.	.
4F	4c	4f	4a	4FF	I	4F 4a 4cc
4C	8c	4e	4g	4CC	V	4C 4e 4g
.	8B-	.	.	.	.	.
4D	4A	4d	4f	4DD	vi	4D 4f 4a
=2	=2	=2	=2	=2	=2	=2
4GG	4B-	4d	2e	4EE	vii7b	4e 4G 4b 4dd
4AA	8A	4c#	.	4AA	V/vi	4A 4cc# 4ee
.	8G	.	.	.	.	.
4D;	4F;	4A;	4d;	4DD;	vi;	4D; 4f; 4a;
4D	4d	4f#	4a	4DD	V/ii	4D 4f# 4a
=3	=3	=3	=3	=3	=3	=3
8G	4d	8g	4b-	4GG	ii	4G 4b- 4dd
8A	.	8fn	.	.	.	.
4B-	4c	4e	4g	4CC	V7d	4c 4e 4g 4B-
8A	4c	4f	4a	4FF	I	4F 4a 4cc
8F	.	.	.	.	.	.
4C	8c	4e	4g	4CC	V	4C 4e 4g
.	8B-	.	.	.	.	.
=4	=4	=4	=4	=4	=4	=4
2.FF;	2.A;	2.c;	2.f;	2.FF;	I;	2.F; 2.a; 2.cc;
=:|!	=:|!	=:|!	=:|!	=:|!	=:|!	=:|!
*>B	*>B	*>B	*>B	*>B	*>B	*>B
8F	4A	4c	8f	4FF	I	4F 4a 4cc
8E	.	.	8g	.	.	.
=5	=5	=5	=5	=5	=5	=5
4D	4d	4f	4a	4DD	vi	4D 4f 4a
4C	4d	4f#	4a	4DD	V7d/ii	4d 4f# 4a 4C
8BB-	4d	4g	4b-	4GG	iib	4g 4B- 4dd
8AA	.	.	.	.	.	.
4GG	4d	4g	4b-	4GG	ii	4G 4b- 4dd
=6	=6	=6	=6	=6	=6	=6
4.AA	2c	4g	2cc	2FF	Ib	2f 2A 2cc
.	.	4fn	.	.	.	.
8BB-	.	.	.	.	.	.
4C;	4c;	4e;	4g;	4CC;	V;	4C; 4e; 4g;
4E	4c	4g	4cc	4CC	Vb	4c 4E 4g
=7	=7	=7	=7	=7	=7	=7
4F	4c	4f	4a	4FF	I	4F 4a 4cc
4F#	4c	4e-	4a	4FF#	viioD7/ii	4F# 4a 4cc 4ee-
4G	4B-	4d	4g	4GG	ii	4G 4b- 4dd
4G#	4Bn	4d	4f	4GG#	viioD7/iii	4G# 4b 4dd 4ff
=8	=8	=8	=8	=8	=8	=8
4A	8E	4d	2e	4AA	iii	4A 4cc 4ee
.	8F	.	.	.	.	.
4AA	4G	4c#	.	4AA	V7/vi	4A 4cc# 4ee 4ggg
4BB-;	4F;	4d;	4d;	4BB-;	IV;	4B-; 4dd; 4ff;
4AA	4cn	4f#	4a	4FF#	viib/ii	4f# 4A 4cc#
=9	=9	=9	=9	=9	=9	=9
8GG	4d	8g	4b-	4GG	ii	4G 4b- 4dd
8AA	.	8fn	.	.	.	.
4BB-	4c	4e	4g	4CC	V7d	4c 4e 4g 4B-
8AA	4c	4f	4a	4FF	Ib	4f 4A 4cc
8BB-	.	.	.	.	.	.
4C	8c	4e	4g	4CC	V	4C 4e 4g
.	8B-	.	.	.	.	.
=10	=10	=10	=10	=10	=10	=10
2.FF;	2.A;	2.c;	2.f;	2.FF;	I;	2.F; 2.a; 2.cc;
==	==	==	==	==	==	==
*-	*-	*-	*-	*-	*-	*-
